X: 19461
T: Jackson's Fancy
R: jig
M: 6/8
K: Dmajor
|:F/E/||DFA def|ece dAF|GBG FAF|BGE E2F|
DFA def|ede dAF|GBG FAF|DED D2:|
|:A||FGF FED|GBG GFE|FGF FED|BGE E2G|
FGF FED|GAG GFE|GBG FAF|DED D2:|

